Gruvbox-Material-Icons/places/scalable/folder-gold-music-open.svg

<svg width="256" height="256" style="isolation:isolate" version="1.1" viewBox="0 0 256 256" xmlns="http://www.w3.org/2000/svg">
  <path d="m53.7 21c-36.32 0-40.04 2.055-40.04 38.37v92.17h230v-71.98c0-36.32-3.724-42.1-40.04-42.1h-89.34l-16.43-16.46h-44.16z" fill="#b57614"/>
  <g filter="url(#a9OfmFvTx7FV2RaN9AHorh6IaG2I6le6)">
    <path d="m40.77 56.67h176.1c5.758 0 10.43 4.675 10.43 10.43v83.47c0 5.758-4.675 10.43-10.43 10.43h-176.1c-5.759 0-10.43-4.675-10.43-10.43v-83.47c0-5.758 4.675-10.43 10.43-10.43z" fill="#ebdbb2"/>
  </g>
  <path d="m53.7 100.4c-36.32 0-40.04 3.73-40.04 40.04v54.52c0 36.32 3.721 40.05 40.04 40.05h149.9c36.32 0 40.04-3.731 40.04-40.05v-70.98c0-36.32-3.722-40.05-40.04-40.05h-83.43l-16.44 16.46h-50.05z" fill="#d79921"/>
  <linearGradient id="_lgradient_4" x2="0" y1=".5" y2="-.5" gradientTransform="matrix(230 0 0 151.1 13.67 83.92)" gradientUnits="userSpaceOnUse">
    <stop stop-color="#ebdbb2" stop-opacity=".07" offset="0"/>
    <stop stop-color="#ebdbb2" stop-opacity="0" offset=".6728"/>
  </linearGradient>
  <path d="m53.7 100.4c-36.32 0-40.04 3.73-40.04 40.04v54.52c0 36.32 3.721 40.05 40.04 40.05h149.9c36.32 0 40.04-3.731 40.04-40.05v-70.98c0-36.32-3.722-40.05-40.04-40.05h-83.43l-16.44 16.46h-50.05z" fill="url(#_lgradient_4)"/>
  <g opacity=".4">
    <radialGradient id="_rgradient_8" cx=".5" cy=".5" r=".272" fy=".136" gradientTransform="matrix(230 0 0 60.62 13.67 21)" gradientUnits="userSpaceOnUse">
      <stop stop-color="#ebdbb2" offset="0"/>
      <stop stop-color="#ebdbb2" stop-opacity=".204" offset="1"/>
    </radialGradient>
    <path d="m53.7 21c-36.32 0-40.04 2.055-40.04 38.37v2.059c0-36.32 3.723-38.37 40.04-38.37h44.16l16.43 16.46h89.34c36.32 0 40.04 5.786 40.04 42.1v-2.057c0-36.32-3.724-42.1-40.04-42.1h-89.34l-16.43-16.46h-44.16z" fill="url(#_rgradient_8)"/>
    <radialGradient id="_rgradient_9" cx=".5" cy=".5" r=".272" fx=".482" fy=".211" gradientTransform="matrix(230 0 0 58.56 13.67 83.92)" gradientUnits="userSpaceOnUse">
      <stop stop-color="#ebdbb2" offset="0"/>
      <stop stop-color="#ebdbb2" stop-opacity=".204" offset="1"/>
    </radialGradient>
    <path d="m120.2 83.92-16.44 16.46h-50.05c-36.32 0-40.04 3.728-40.04 40.04v2.06c0-36.32 3.723-40.05 40.04-40.05h50.05l16.44-16.46h83.43c36.32 0 40.04 3.727 40.04 40.04v-2.057c0-36.32-3.724-40.04-40.04-40.04h-83.43z" fill="url(#_rgradient_9)"/>
  </g>
  <g opacity=".1">
    <path d="m243.7 167.1-65.72 65.84h25.68c36.32 0 40.04-3.727 40.04-40.04v-25.8z" fill="#ebdbb2"/>
  </g>
  <g opacity=".2">
    <path d="m13.67 192.9v2.057c0 36.32 3.723 40.04 40.04 40.04h149.9c36.32 0 40.04-3.729 40.04-40.04v-2.057c0 36.32-3.724 40.04-40.04 40.04h-149.9c-36.32 0-40.04-3.727-40.04-40.04z"/>
  </g>
  <path d="m166 116c-1.207-0.011-2.814 0.171-4.951 0.48l-38.59 5.493c-8.585 1.756-8.585 2.3-8.585 9.268v65.33c-0.633-0.425-1.257-0.853-1.911-1.274v3e-3c-2.727-1.756-5.634-3.006-9.539-3.006-4.891 0-7.808 1.799-9.574 4.169-1.765 2.369-2.351 5.356-2.351 7.665 0 2.784 0.99 5.755 3.137 8.019 2.146 2.264 5.447 3.851 10.19 3.851 5.359 0 9.128-1.438 11.26-4.245 1.678-2.21 2.604-5.163 2.936-8.805v-0.012c0.046-0.441 0.079-0.895 0.108-1.362 0.045-0.72 0.036-2.067 0.036-2.067v-51.53c0-6.183-1e-3 -6.552 8.587-7.963l30.02-4.082c8.468-1.065 8.6-0.326 8.602 4.12v48.27c-0.633-0.425-1.257-0.853-1.911-1.274v2e-3c-2.728-1.756-5.635-3.005-9.539-3.005-4.891 0-7.809 1.799-9.575 4.168-1.765 2.37-2.351 5.357-2.351 7.665 0 2.785 0.991 5.756 3.138 8.02 2.146 2.265 5.447 3.85 10.19 3.851 5.358 0 9.128-1.438 11.26-4.246 1.677-2.21 2.605-5.161 2.936-8.804v-0.012c0.045-0.441 0.079-0.895 0.109-1.362 0.045-0.72 0.035-2.067 0.035-2.067v-68c0-5.423-0.037-7.219-3.661-7.258l-2e-3 2e-3z" fill="#d5c4a1"/>
</svg>

<svg xmlns="http://www.w3.org/2000/svg" style="isolation:isolate" width="256" height="256" viewBox="0 0 256 256">
 <g>
  <path fill="#b57614" d="M 53.705 21 C 17.39 21 13.667 23.055 13.667 59.371 L 13.667 151.538 L 243.667 151.538 L 243.667 79.563 C 243.667 43.247 239.943 37.461 203.628 37.461 L 114.292 37.461 L 97.864 21 L 53.705 21 Z"/>
  <defs>
   <filter id="a9OfmFvTx7FV2RaN9AHorh6IaG2I6le6" width="400%" height="400%" x="-200%" y="-200%" color-interpolation-filters="sRGB" filterUnits="objectBoundingBox">
    <feGaussianBlur xmlns="http://www.w3.org/2000/svg" in="SourceGraphic" stdDeviation="4.294"/>
    <feOffset xmlns="http://www.w3.org/2000/svg" dx="0" dy="0" result="pf_100_offsetBlur"/>
    <feFlood xmlns="http://www.w3.org/2000/svg" flood-opacity=".4"/>
    <feComposite xmlns="http://www.w3.org/2000/svg" in2="pf_100_offsetBlur" operator="in" result="pf_100_dropShadow"/>
    <feBlend xmlns="http://www.w3.org/2000/svg" in="SourceGraphic" in2="pf_100_dropShadow" mode="normal"/>
   </filter>
  </defs>
  <g filter="url(#a9OfmFvTx7FV2RaN9AHorh6IaG2I6le6)">
   <path fill="#ebdbb2" d="M 40.767 56.667 L 216.9 56.667 C 222.658 56.667 227.333 61.342 227.333 67.1 L 227.333 150.567 C 227.333 156.325 222.658 161 216.9 161 L 40.767 161 C 35.008 161 30.333 156.325 30.333 150.567 L 30.333 67.1 C 30.333 61.342 35.008 56.667 40.767 56.667 Z"/>
  </g>
  <path fill="#d79921" d="M 53.705 100.384 C 17.388 100.384 13.667 104.114 13.667 140.429 L 13.667 194.953 C 13.667 231.269 17.388 235 53.705 235 L 203.628 235 C 239.945 235 243.667 231.269 243.667 194.953 L 243.667 123.969 C 243.667 87.653 239.945 83.922 203.628 83.922 L 120.197 83.922 L 103.759 100.384 L 53.705 100.384 Z"/>
  <linearGradient id="_lgradient_4" x1="0" x2="0" y1=".5" y2="-.5" gradientTransform="matrix(230,0,0,151.078,13.667,83.922)" gradientUnits="userSpaceOnUse">
   <stop offset="0%" stop-opacity=".07" style="stop-color:#ebdbb2"/>
   <stop offset="67.282%" stop-opacity="0" style="stop-color:#ebdbb2"/>
  </linearGradient>
  <path fill="url(#_lgradient_4)" d="M 53.705 100.384 C 17.388 100.384 13.667 104.114 13.667 140.429 L 13.667 194.953 C 13.667 231.269 17.388 235 53.705 235 L 203.628 235 C 239.945 235 243.667 231.269 243.667 194.953 L 243.667 123.969 C 243.667 87.653 239.945 83.922 203.628 83.922 L 120.197 83.922 L 103.759 100.384 L 53.705 100.384 Z"/>
  <g opacity=".4">
   <radialGradient id="_rgradient_8" cx=".5" cy=".5" r=".272" fx=".5" fy=".136" gradientTransform="matrix(230,0,0,60.62,13.667,21)" gradientUnits="userSpaceOnUse">
    <stop offset="0%" style="stop-color:#ebdbb2"/>
    <stop offset="100%" stop-opacity=".204" style="stop-color:#ebdbb2"/>
   </radialGradient>
   <path fill="url(#_rgradient_8)" d="M 53.705 21 C 17.39 21 13.667 23.055 13.667 59.371 L 13.667 61.43 C 13.667 25.114 17.39 23.057 53.705 23.057 L 97.864 23.057 L 114.292 39.518 L 203.628 39.518 C 239.943 39.518 243.667 45.304 243.667 81.62 L 243.667 79.563 C 243.667 43.247 239.943 37.461 203.628 37.461 L 114.292 37.461 L 97.864 21 L 53.705 21 Z"/>
  </g>
  <g opacity=".4">
   <radialGradient id="_rgradient_9" cx=".5" cy=".5" r=".272" fx=".482" fy=".211" gradientTransform="matrix(230,0,0,58.565,13.667,83.922)" gradientUnits="userSpaceOnUse">
    <stop offset="0%" style="stop-color:#ebdbb2"/>
    <stop offset="100%" stop-opacity=".204" style="stop-color:#ebdbb2"/>
   </radialGradient>
   <path fill="url(#_rgradient_9)" d="M 120.197 83.922 L 103.759 100.384 L 53.705 100.384 C 17.39 100.384 13.667 104.112 13.667 140.427 L 13.667 142.487 C 13.667 106.171 17.39 102.441 53.705 102.441 L 103.759 102.441 L 120.197 85.981 L 203.628 85.981 C 239.943 85.981 243.667 89.708 243.667 126.024 L 243.667 123.967 C 243.667 87.651 239.943 83.922 203.628 83.922 L 120.197 83.922 Z"/>
  </g>
  <g opacity=".1">
   <path fill="#ebdbb2" d="M 243.667 167.096 L 177.952 232.941 L 203.628 232.941 C 239.943 232.941 243.667 229.214 243.667 192.898 L 243.667 167.096 Z"/>
  </g>
  <g opacity=".2">
   <path d="M 13.667 192.898 L 13.667 194.955 C 13.667 231.271 17.39 235 53.705 235 L 203.628 235 C 239.943 235 243.667 231.271 243.667 194.955 L 243.667 192.898 C 243.667 229.214 239.943 232.941 203.628 232.941 L 53.705 232.941 C 17.39 232.941 13.667 229.214 13.667 192.898 Z"/>
  </g>
 </g>
 <path fill="#d5c4a1" d="M 166.003 116.002 C 164.796 115.991 163.189 116.173 161.052 116.482 L 122.46 121.975 C 113.875 123.731 113.875 124.275 113.875 131.243 L 113.875 196.573 C 113.242 196.148 112.618 195.72 111.964 195.299 L 111.964 195.302 C 109.237 193.546 106.33 192.296 102.425 192.296 C 97.534 192.296 94.617 194.095 92.851 196.465 C 91.086 198.834 90.5 201.821 90.5 204.13 C 90.5 206.914 91.49 209.885 93.637 212.149 C 95.783 214.413 99.084 216 103.829 216 C 109.188 216 112.957 214.562 115.088 211.755 C 116.766 209.545 117.692 206.592 118.024 202.95 L 118.024 202.938 C 118.07 202.497 118.103 202.043 118.132 201.576 C 118.177 200.856 118.168 199.509 118.168 199.509 L 118.168 147.978 C 118.168 141.795 118.167 141.426 126.755 140.015 L 156.771 135.933 C 165.239 134.868 165.371 135.607 165.373 140.053 L 165.373 188.327 C 164.74 187.902 164.116 187.474 163.462 187.053 L 163.462 187.055 C 160.734 185.299 157.827 184.05 153.923 184.05 C 149.032 184.05 146.114 185.849 144.348 188.218 C 142.583 190.588 141.997 193.575 141.997 195.883 C 141.997 198.668 142.988 201.639 145.135 203.903 C 147.281 206.168 150.582 207.753 155.327 207.754 C 160.685 207.754 164.455 206.316 166.586 203.508 C 168.263 201.298 169.191 198.347 169.522 194.704 L 169.522 194.692 C 169.567 194.251 169.601 193.797 169.631 193.33 C 169.676 192.61 169.666 191.263 169.666 191.263 L 169.666 123.258 C 169.666 117.835 169.629 116.039 166.005 116 L 166.003 116.002 L 166.003 116.002 Z"/>
</svg>
